X:25
T:Highland March from Oscar & Malvina
M:6/8
L:1/8
Z:Julie Ross
D:Catherine McEvoy with Felix Dolan (Sligo-Roscommon style)
K:Dmaj
d3 d2e | dcB ABc | dcB AGF | GEF GFE |
e2e e2e | fed eag | fed dAB |1 def ~e3 :|2 def e2f |
|: fed eAA | fed e2a | gfe fBB | gfe fBB |
fed e2A | fed eag | fed dAB |1 def e2f :|2 def e2e |
| dfa dfa | a2a afd | egb egb | egb bge |
dfa dfa | dfa a2g | fed dAB | def ~e3 ||
|d2a dfa | a3 afd | egb e2b | egb bge |
dfa dfa | dfa a2g | fed dAB | def ~e3 ||
